public/Logo.svg

<svg width="307" height="115" viewBox="0 0 307 115" fill="none" xmlns="http://www.w3.org/2000/svg">
<path fill-rule="evenodd" clip-rule="evenodd" d="M57 2H245V27H247V2V0H245H57H55V2V27H57V2ZM57 87H55V113V115H57H245H247V113V87H245V113H57V87Z" fill="white"/>
<path d="M14.7591 54.3393V73.625L20.6224 74.2449V75.898H0V74.2449L5.86322 73.625V32.1607L0 31.403V29.8189H34.3706V39.6684H32.214L29.6531 32.3673L14.7591 32.1607V51.8597H27.9009L29.9901 46.7627H31.9445V59.574H29.9227L27.9009 54.3393H14.7591Z" fill="white"/>
<path d="M69.104 71.6964C65.959 75.0025 61.6683 76.6556 56.2319 76.6556C50.7955 76.6556 46.5048 75.0025 43.3597 71.6964C40.2147 68.3903 38.6422 64.1888 38.6422 59.0918C38.6422 53.9949 40.2147 49.7934 43.3597 46.4872C46.5048 43.1811 50.7955 41.5281 56.2319 41.5281C61.6683 41.5281 65.959 43.1811 69.104 46.4872C72.249 49.7934 73.8215 53.9949 73.8215 59.0918C73.8215 64.1888 72.249 68.3903 69.104 71.6964ZM48.0099 59.0918C48.0099 69.699 50.7505 75.0025 56.2319 75.0025C61.7132 75.0025 64.4539 69.699 64.4539 59.0918C64.4539 53.903 63.8473 49.977 62.6343 47.3138C61.4212 44.6046 59.287 43.25 56.2319 43.25C53.1767 43.25 51.0426 44.6046 49.8295 47.3138C48.6164 49.977 48.0099 53.903 48.0099 59.0918Z" fill="white"/>
<path d="M109.514 71.6964C106.369 75.0025 102.078 76.6556 96.6416 76.6556C91.2052 76.6556 86.9145 75.0025 83.7694 71.6964C80.6244 68.3903 79.0519 64.1888 79.0519 59.0918C79.0519 53.9949 80.6244 49.7934 83.7694 46.4872C86.9145 43.1811 91.2052 41.5281 96.6416 41.5281C102.078 41.5281 106.369 43.1811 109.514 46.4872C112.659 49.7934 114.231 53.9949 114.231 59.0918C114.231 64.1888 112.659 68.3903 109.514 71.6964ZM88.4196 59.0918C88.4196 69.699 91.1602 75.0025 96.6416 75.0025C102.123 75.0025 104.864 69.699 104.864 59.0918C104.864 53.903 104.257 49.977 103.044 47.3138C101.831 44.6046 99.6967 43.25 96.6416 43.25C93.5864 43.25 91.4523 44.6046 90.2392 47.3138C89.0261 49.977 88.4196 53.903 88.4196 59.0918Z" fill="white"/>
<path d="M133.749 76.9311C129.66 76.9311 126.268 75.5306 123.573 72.7296C120.877 69.9286 119.529 65.7041 119.529 60.0561C119.529 54.4081 121.124 49.9541 124.314 46.6939C127.549 43.4337 131.84 41.8036 137.186 41.8036C139.972 41.8036 142.6 42.4694 145.071 43.801V26.3061L139.275 25.8929V24.1709L153.697 23V74.3138L159.426 74.5893L159.493 76.1735L145.408 77L145.543 70.801H145.138C144.015 72.7296 142.42 74.2449 140.354 75.3469C138.287 76.4031 136.085 76.9311 133.749 76.9311ZM145.004 65.2908V46.3495C143.207 44.6505 140.915 43.801 138.13 43.801C134.58 43.801 132.154 45.477 130.851 48.8291C129.773 51.7678 129.234 55.5102 129.234 60.0561C129.234 69.8367 131.368 74.727 135.636 74.727C138.152 74.727 140.331 73.625 142.173 71.4209C144.06 69.2168 145.004 67.1735 145.004 65.2908Z" fill="white"/>
<path d="M162.783 40.0127V29.8877L202.006 29.75V31.8852L172.892 72.3852L197.221 72.523L199.58 64.9464H201.804V75.0025L161.839 75.1403V73.2117L191.223 32.5051L167.366 32.3673L165.007 40.0127H162.783Z" fill="white"/>
<path d="M229.503 51.8597C229.503 46.2576 227.594 43.4566 223.775 43.4566C219.776 43.4566 217.35 47.0382 216.496 54.2015H229.369C229.458 53.2831 229.503 52.5025 229.503 51.8597ZM223.168 76.6556C218.361 76.6556 214.452 75.0485 211.442 71.8342C208.477 68.6199 206.994 64.3724 206.994 59.0918C206.994 53.8112 208.544 49.5638 211.644 46.3495C214.789 43.1352 218.765 41.5281 223.573 41.5281C228.38 41.5281 231.974 42.5842 234.356 44.6964C236.737 46.7627 237.928 49.6556 237.928 53.375C237.928 54.4311 237.838 55.5332 237.658 56.6811H216.294V59.0918C216.294 64.2347 216.923 68.1378 218.181 70.801C219.439 73.4184 221.326 74.727 223.842 74.727C226.403 74.727 228.717 74.199 230.784 73.1429C232.896 72.0408 234.535 70.5025 235.704 68.5281C236.692 68.8495 237.186 69.3316 237.186 69.9745C237.186 71.1225 236.13 72.4541 234.019 73.9694C232.985 74.7041 231.503 75.3469 229.571 75.898C227.684 76.4031 225.55 76.6556 223.168 76.6556Z" fill="white"/>
<path d="M255.189 50.4133C255.953 47.9337 257.346 45.8214 259.368 44.0765C261.434 42.3316 263.299 41.4592 264.961 41.4592C266.669 41.4592 267.814 41.8954 268.398 42.7678C268.982 43.5944 269.274 44.2832 269.274 44.8342C269.274 46.7168 268.6 48.0714 267.253 48.8979C266.354 48.1632 265.006 47.7959 263.209 47.7959C261.457 47.7959 259.705 48.3699 257.952 49.5178C256.2 50.6199 255.324 51.8367 255.324 53.1684V73.9005L261.389 74.3138V75.898H242.587V74.3138L247.035 73.9694V44.5587L241.576 44.2832V42.699L255.324 41.9413L254.92 50.4133H255.189Z" fill="white"/>
<path d="M302.282 71.6964C299.137 75.0025 294.847 76.6556 289.41 76.6556C283.974 76.6556 279.683 75.0025 276.538 71.6964C273.393 68.3903 271.821 64.1888 271.821 59.0918C271.821 53.9949 273.393 49.7934 276.538 46.4872C279.683 43.1811 283.974 41.5281 289.41 41.5281C294.847 41.5281 299.137 43.1811 302.282 46.4872C305.427 49.7934 307 53.9949 307 59.0918C307 64.1888 305.427 68.3903 302.282 71.6964ZM281.188 59.0918C281.188 69.699 283.929 75.0025 289.41 75.0025C294.892 75.0025 297.632 69.699 297.632 59.0918C297.632 53.903 297.026 49.977 295.813 47.3138C294.6 44.6046 292.465 43.25 289.41 43.25C286.355 43.25 284.221 44.6046 283.008 47.3138C281.795 49.977 281.188 53.903 281.188 59.0918Z" fill="white"/>
</svg>

<svg xmlns="http://www.w3.org/2000/svg" width="307" height="115" fill="none"><path fill="#fff" fill-rule="evenodd" d="M57 2h188v25h2V0H55v27h2V2Zm0 85h-2v28h192V87h-2v26H57V87Z" clip-rule="evenodd"/><path fill="#fff" d="M14.76 54.34v19.285l5.862.62v1.653H0v-1.653l5.863-.62V32.161L0 31.403v-1.584h34.37v9.85h-2.156l-2.56-7.302-14.895-.206V51.86h13.142l2.09-5.097h1.954v12.811h-2.022L27.9 54.339H14.759ZM69.104 71.696c-3.145 3.306-7.436 4.96-12.872 4.96-5.437 0-9.727-1.654-12.872-4.96-3.145-3.306-4.718-7.507-4.718-12.604 0-5.097 1.573-9.299 4.718-12.605 3.145-3.306 7.435-4.959 12.872-4.959 5.436 0 9.727 1.653 12.872 4.96 3.145 3.305 4.718 7.507 4.718 12.604 0 5.097-1.573 9.298-4.718 12.604ZM48.01 59.092c0 10.607 2.74 15.91 8.222 15.91 5.481 0 8.222-5.303 8.222-15.91 0-5.189-.607-9.115-1.82-11.778-1.213-2.71-3.347-4.064-6.402-4.064s-5.19 1.355-6.402 4.064c-1.214 2.663-1.82 6.589-1.82 11.778ZM109.514 71.696c-3.145 3.306-7.436 4.96-12.872 4.96-5.437 0-9.727-1.654-12.873-4.96-3.145-3.306-4.717-7.507-4.717-12.604 0-5.097 1.572-9.299 4.717-12.605 3.145-3.306 7.436-4.959 12.873-4.959 5.436 0 9.727 1.653 12.872 4.96 3.145 3.305 4.717 7.507 4.717 12.604 0 5.097-1.572 9.298-4.717 12.604ZM88.42 59.092c0 10.607 2.74 15.91 8.222 15.91 5.481 0 8.222-5.303 8.222-15.91 0-5.189-.607-9.115-1.82-11.778-1.213-2.71-3.347-4.064-6.402-4.064-3.056 0-5.19 1.355-6.403 4.064-1.213 2.663-1.82 6.589-1.82 11.778ZM133.749 76.931c-4.089 0-7.481-1.4-10.176-4.201-2.696-2.801-4.044-7.026-4.044-12.674s1.595-10.102 4.785-13.362c3.235-3.26 7.526-4.89 12.872-4.89 2.786 0 5.414.665 7.885 1.997V26.306l-5.796-.413V24.17L153.697 23v51.314l5.729.275.067 1.585-14.085.826.135-6.199h-.405c-1.123 1.929-2.718 3.444-4.784 4.546a14.316 14.316 0 0 1-6.605 1.584Zm11.255-11.64V46.35c-1.797-1.7-4.089-2.549-6.874-2.549-3.55 0-5.976 1.676-7.279 5.028-1.078 2.939-1.617 6.681-1.617 11.227 0 9.78 2.134 14.671 6.402 14.671 2.516 0 4.695-1.102 6.537-3.306 1.887-2.204 2.831-4.248 2.831-6.13ZM162.783 40.013V29.888l39.223-.138v2.135l-29.114 40.5 24.329.138 2.359-7.577h2.224v10.056l-39.965.138v-1.928l29.384-40.707-23.857-.138-2.359 7.646h-2.224ZM229.503 51.86c0-5.602-1.909-8.403-5.728-8.403-3.999 0-6.425 3.581-7.279 10.745h12.873c.089-.919.134-1.7.134-2.342Zm-6.335 24.796c-4.807 0-8.716-1.608-11.726-4.822-2.965-3.214-4.448-7.462-4.448-12.742 0-5.28 1.55-9.528 4.65-12.742 3.145-3.215 7.121-4.822 11.929-4.822 4.807 0 8.401 1.056 10.783 3.168 2.381 2.067 3.572 4.96 3.572 8.679 0 1.056-.09 2.158-.27 3.306h-21.364v2.41c0 5.144.629 9.047 1.887 11.71 1.258 2.617 3.145 3.926 5.661 3.926 2.561 0 4.875-.528 6.942-1.584 2.112-1.102 3.751-2.64 4.92-4.615.988.322 1.482.804 1.482 1.447 0 1.148-1.056 2.48-3.167 3.994-1.034.735-2.516 1.378-4.448 1.929-1.887.505-4.021.758-6.403.758ZM255.189 50.413c.764-2.48 2.157-4.592 4.179-6.336 2.066-1.745 3.931-2.618 5.593-2.618 1.708 0 2.853.436 3.437 1.309.584.826.876 1.515.876 2.066 0 1.883-.674 3.237-2.021 4.064-.899-.735-2.247-1.102-4.044-1.102-1.752 0-3.504.574-5.257 1.722-1.752 1.102-2.628 2.319-2.628 3.65V73.9l6.065.414v1.584h-18.802v-1.584l4.448-.345V44.56l-5.459-.276V42.7l13.748-.758-.404 8.472h.269ZM302.282 71.696c-3.145 3.306-7.435 4.96-12.872 4.96-5.436 0-9.727-1.654-12.872-4.96-3.145-3.306-4.717-7.507-4.717-12.604 0-5.097 1.572-9.299 4.717-12.605 3.145-3.306 7.436-4.959 12.872-4.959 5.437 0 9.727 1.653 12.872 4.96 3.145 3.305 4.718 7.507 4.718 12.604 0 5.097-1.573 9.298-4.718 12.604Zm-21.094-12.604c0 10.607 2.741 15.91 8.222 15.91 5.482 0 8.222-5.303 8.222-15.91 0-5.189-.606-9.115-1.819-11.778-1.213-2.71-3.348-4.064-6.403-4.064-3.055 0-5.189 1.355-6.402 4.064-1.213 2.663-1.82 6.589-1.82 11.778Z"/></svg>
